rospo-icon-theme-classic-common/22x22/apps/peruse.svg

<svg height="22" width="22" xmlns="http://www.w3.org/2000/svg"><g fill-rule="evenodd"><path d="m12 2-2.5 8.5 11.5 3.5v-11c0-.554-.446-1-1-1z" fill="#bbc91b"/><path d="m9.5 10.5-3 9.5h13.5c.554 0 1-.446 1-1v-2-3z" fill="#3e7952"/><path d="m2 2c-.554 0-1 .446-1 1v16c0 .554.446 1 1 1h4.9785155l5.0214845-18z" fill="#3a76a2"/></g><path d="m1 19v .5c0 .554.446 1 1 1h18c .554 0 1-.446 1-1v-.5c0 .554-.446 1-1 1h-18c-.554 0-1-.446-1-1z" opacity=".2"/><path d="m10.811525 4.22461c-3.997175 4.756375-9.811525 4.27539-9.811525 4.27539v2s1.927325 2.71837 7.17285 2.367525z" fill="#9f3f32"/><path d="m7.98779 7.785545c-.380625.002-.94684.640115-.520865.9507.466725.3403.34166.70847.107995.80448-.233665.09602-.589035.01015-.619445-.56324-.02895-.54543-.61734-.872285-1.171845-.056685-.03425.08637-.059845.173665-.07199.260985-.10956.78777.660545 1.55882 1.448315 1.66838.787775.109565 1.71767-.57759 1.82723-1.365365.095235-.684755-.36115-1.440895-.999385-1.69925zm-2.02398.80818c-.02075.0292-.03445.0601-.053105.08998z" fill="#4d2f2b"/><path d="m10.811524 4.2246095c-2.573528 2.701493-5.385611 3.635012-7.5546881 4.1435545.2419216.2854095.6532839.631836 1.2431641.631836 1 0 1.5-.5 1.5-.5s1.306755.31759 3-1c .583165-.4537885.992123-1.005839 1.290039-1.5371095z" fill="#dee3e3"/><path d="m8.980469 10.326172c-.3693715.14814-.8196935.34344-1.480469.673828-1.1156635.557832-2.0390185 1.097635-2.669922 1.619476 1.0306825.397824 2.1153165.490736 3.3427735.248047z" fill="#e05e4c"/><path d="m15.810547 12.202149c-.2221.308647-.45706.716821-.695313 1.231445-.676919 1.462155-1.083191 3.032665-1.597656 2.978515-.51446-.05417-.689534-.269363-.974609-.595703-.285075-.326335-.641164-.970616-.993164-1.160156s-.432531-.135473-.62207-.108398c-.18954.0271-.285043-.03418-.379883.216797-.09483.250959.397818.808244.533203 1.268554.10596.360267.358215.951032.451172 1.451172l.807617 2.515625h5.21875c.266523-.758367.887883-1.762915 1.672851-2.472656.144987-.131092 1.110865-.894675 1.185547-1.049805.106071-.220333-.0049-.593839-.292969-.55957-.09604.01142-.221334.06559-.383789.180664-.293987.20824-1.158921.639034-1.53418.901367.392279-.575809 1.169439-1.477449 1.376954-1.779297.217391-.316201.618543-.961619.68457-1.362304l-.654297-.242188c-.222873.146945-.484053.418923-.81543.819336-.649845.785225-1.434757 1.949574-1.651367 1.787109-.21662-.16246.676858-1.380785 1.083008-2.166015.14428-.278943.28416-.549547.400391-.806641l-1.069336-.396484c-.222469.303082-.414235.634129-.522461.850586-.27077.54154-.97506 2.112474-1.21875 2.031249-.243695-.08123.162209-1.435204.568359-2.193359.1675-.312669.331777-.646076.453125-.957031z" fill="#ffc169"/><path d="m19.69686 3c-1.30314 0-3.69686 0-5.77818.93438-.886105.397805-1.73752 1.53774-1.30314 1.97212.43438.434385 1.310795-.64666 2.606275-1.10336 2.278185-.80314 4.824055-1.203895 5.778185-1.31701v-.287605c-.27371-.101975-.689255-.198525-1.30314-.198525z" fill="#6c5548"/><path d="m16.722656 5.5000009c-1.54064 0-3.222656 2.1258025-3.222656 3.6738731 0 .870842 1.977212 1.115586 3.466797 1.306069 1.52832.195432 3.033203-1.064073 3.033203-2.6121381 0-.113235-.01147-.2213595-.0293-.326763v-.001c-.00085-.00502-.0021-.00973-.0029-.01472-.000035-.0001955-.00095-.0008-.001-.001-.217164-1.216231-1.571203-1.896503-2.892578-2.000809-.0013-.0001045-.0026-.00085-.0039-.00095-.116161-.009-.232788-.022525-.347621-.022525z" opacity=".2"/><path d="m16.722656 5c-1.54064 0-3.222656 2.1258025-3.222656 3.6738735 0 .8708425 1.977212 1.1155865 3.466797 1.3060695 1.52832.195432 3.033203-1.064073 3.033203-2.612139 0-.113235-.01147-.2213595-.0293-.326763v-.001c-.00085-.00502-.0021-.00973-.0029-.01472-.000035-.0001955-.00095-.0008-.001-.001-.217164-1.216231-1.571203-1.896503-2.892578-2.000809-.0013-.0001045-.0026-.00085-.0039-.00095-.116161-.009-.232788-.022525-.347621-.022525z" fill="#fff"/><path d="m17.433594 5.071289a1.5166552 1.5239656 0 0 0 -.933594 1.404297 1.5166552 1.5239656 0 0 0 1.516601 1.524414 1.5166552 1.5239656 0 0 0 1.516602-1.524414 1.5166552 1.5239656 0 0 0 -.056641-.40625c-.484492-.535764-1.246186-.871983-2.042968-.998047z" fill="#583268"/><path d="m3.4501953 2c .0968225 1.0000569.4120178 2.114379.7265627 2.6591875.621315 1.076155 1.747087 1.01194 2.823242.390625 1.07606-.62132 1.89432-1.6142825 1.273-2.6904375-.0628485-.108857-.1544035-.2334282-.25-.359375z" fill="#54d883"/><path d="m11.161133 2.5-4.8232425 18h .1621095.4785155.3945315l4.823242-18h-.196289z" opacity=".2"/><path d="m9.5 10.5-.258789.965821 11.758789 3.15039v-.116211-.918945z" opacity=".2"/><g fill="#fff"><path d="m11.161133 2-4.8232425 18h .1621095.4785155.3945315l4.823242-18h-.196289z"/><path d="m9.5 10-.258789.965821 11.758789 3.15039v-.116211-.918945z"/><path d="m2 2c-.554 0-1 .446-1 1v .5c0-.554.446-1 1-1h18c .554 0 1 .446 1 1v-.5c0-.554-.446-1-1-1z" opacity=".2"/></g></svg>

<svg xmlns="http://www.w3.org/2000/svg" width="22" height="22" version="1">
 <path style="fill:#bbc91b;fill-rule:evenodd" d="M 12,2 9.5,10.5 21,14 21,3 C 21,2.446 20.554,2 20,2 Z"/>
 <path style="fill:#3e7952;fill-rule:evenodd" d="M 9.5,10.5 6.5,20 20,20 c 0.554,0 1,-0.446 1,-1 l 0,-2 0,-3 z"/>
 <path style="fill:#3a76a2;fill-rule:evenodd" d="M 2,2 C 1.446,2 1,2.446 1,3 l 0,16 c 0,0.554 0.446,1 1,1 L 6.9785155,20 12,2 Z"/>
 <path style="opacity:0.2" d="m 1,19 0,0.5 c 0,0.554 0.446,1 1,1 l 18,0 c 0.554,0 1,-0.446 1,-1 L 21,19 c 0,0.554 -0.446,1 -1,1 L 2,20 C 1.446,20 1,19.554 1,19 Z"/>
 <path style="fill:#9f3f32" d="M 10.811525,4.22461 C 6.81435,8.980985 1,8.5 1,8.5 l 0,2 c 0,0 1.927325,2.71837 7.17285,2.367525 z"/>
 <path style="fill:#4d2f2b" d="m 7.98779,7.785545 c -0.380625,0.002 -0.94684,0.640115 -0.520865,0.9507 0.466725,0.3403 0.34166,0.70847 0.107995,0.80448 C 7.341255,9.636745 6.985885,9.550875 6.955475,8.977485 6.926525,8.432055 6.338135,8.1052 5.78363,8.9208 5.74938,9.00717 5.723785,9.094465 5.71164,9.181785 5.60208,9.969555 6.372185,10.740605 7.159955,10.850165 7.94773,10.95973 8.877625,10.272575 8.987185,9.4848 9.08242,8.800045 8.626035,8.043905 7.9878,7.78555 Z m -2.02398,0.80818 c -0.02075,0.0292 -0.03445,0.0601 -0.053105,0.08998 L 5.96381,8.593725 Z"/>
 <path style="fill:#dee3e3" d="M 10.811524,4.2246095 C 8.237996,6.9261025 5.425913,7.8596215 3.2568359,8.368164 3.4987575,8.6535735 3.9101198,9 4.5,9 5.5,9 6,8.5 6,8.5 6,8.5 7.306755,8.81759 9,7.5 9.583165,7.0462115 9.992123,6.494161 10.290039,5.9628905 Z"/>
 <path style="fill:#e05e4c" d="M 8.980469,10.326172 C 8.6110975,10.474312 8.1607755,10.669612 7.5,11 6.3843365,11.557832 5.4609815,12.097635 4.830078,12.619476 5.8607605,13.0173 6.9453945,13.110212 8.1728515,12.867523 Z"/>
 <path style="fill:#ffc169" d="m 15.810547,12.202149 c -0.2221,0.308647 -0.45706,0.716821 -0.695313,1.231445 -0.676919,1.462155 -1.083191,3.032665 -1.597656,2.978515 -0.51446,-0.05417 -0.689534,-0.269363 -0.974609,-0.595703 -0.285075,-0.326335 -0.641164,-0.970616 -0.993164,-1.160156 -0.352,-0.18954 -0.432531,-0.135473 -0.62207,-0.108398 -0.18954,0.0271 -0.285043,-0.03418 -0.379883,0.216797 -0.09483,0.250959 0.397818,0.808244 0.533203,1.268554 0.10596,0.360267 0.358215,0.951032 0.451172,1.451172 L 12.339844,20 l 5.21875,0 c 0.266523,-0.758367 0.887883,-1.762915 1.672851,-2.472656 0.144987,-0.131092 1.110865,-0.894675 1.185547,-1.049805 0.106071,-0.220333 -0.0049,-0.593839 -0.292969,-0.55957 -0.09604,0.01142 -0.221334,0.06559 -0.383789,0.180664 -0.293987,0.20824 -1.158921,0.639034 -1.53418,0.901367 0.392279,-0.575809 1.169439,-1.477449 1.376954,-1.779297 0.217391,-0.316201 0.618543,-0.961619 0.68457,-1.362304 l -0.654297,-0.242188 c -0.222873,0.146945 -0.484053,0.418923 -0.81543,0.819336 -0.649845,0.785225 -1.434757,1.949574 -1.651367,1.787109 -0.21662,-0.16246 0.676858,-1.380785 1.083008,-2.166015 0.14428,-0.278943 0.28416,-0.549547 0.400391,-0.806641 l -1.069336,-0.396484 c -0.222469,0.303082 -0.414235,0.634129 -0.522461,0.850586 -0.27077,0.54154 -0.97506,2.112474 -1.21875,2.031249 -0.243695,-0.08123 0.162209,-1.435204 0.568359,-2.193359 0.1675,-0.312669 0.331777,-0.646076 0.453125,-0.957031 l -1.030273,-0.382812 z"/>
 <path style="fill:#6c5548" d="M 19.69686,3 C 18.39372,3 16,3 13.91868,3.93438 13.032575,4.332185 12.18116,5.47212 12.61554,5.9065 13.04992,6.340885 13.926335,5.25984 15.221815,4.80314 17.5,4 20.04587,3.599245 21,3.48613 L 21,3.198525 C 20.72629,3.09655 20.310745,3 19.69686,3 Z"/>
 <path style="opacity:0.2" d="m 16.722656,5.5000009 c -1.54064,0 -3.222656,2.1258025 -3.222656,3.6738731 0,0.870842 1.977212,1.115586 3.466797,1.306069 C 18.495117,10.675375 20,9.41587 20,7.8678049 c 0,-0.113235 -0.01147,-0.2213595 -0.0293,-0.326763 0,0 0,-10e-4 0,-10e-4 -8.5e-4,-0.00502 -0.0021,-0.00973 -0.0029,-0.01472 -3.5e-5,-1.955e-4 -9.5e-4,-8e-4 -0.001,-10e-4 -0.217164,-1.216231 -1.571203,-1.896503 -2.892578,-2.000809 -0.0013,-1.045e-4 -0.0026,-8.5e-4 -0.0039,-9.5e-4 -0.116161,-0.009 -0.232788,-0.022525 -0.347621,-0.022525 z"/>
 <path style="fill:#ffffff" d="M 16.722656,5 C 15.182016,5 13.5,7.1258025 13.5,8.6738735 13.5,9.544716 15.477212,9.78946 16.966797,9.979943 18.495117,10.175375 20,8.91587 20,7.367804 20,7.254569 19.98853,7.1464445 19.9707,7.041041 c 0,0 0,-10e-4 0,-10e-4 -8.5e-4,-0.00502 -0.0021,-0.00973 -0.0029,-0.01472 -3.5e-5,-1.955e-4 -9.5e-4,-8e-4 -0.001,-0.001 -0.217164,-1.216231 -1.571203,-1.896503 -2.892578,-2.000809 -0.0013,-1.045e-4 -0.0026,-8.5e-4 -0.0039,-9.5e-4 -0.116161,-0.009 -0.232788,-0.022525 -0.347621,-0.022525 z"/>
 <path style="fill:#583268" d="M 17.433594,5.071289 A 1.5166552,1.5239656 0 0 0 16.5,6.475586 1.5166552,1.5239656 0 0 0 18.016601,8 1.5166552,1.5239656 0 0 0 19.533203,6.475586 1.5166552,1.5239656 0 0 0 19.476562,6.069336 C 18.99207,5.533572 18.230376,5.197353 17.433594,5.071289 Z"/>
 <path style="fill:#54d883" d="M 3.4501953,2 C 3.5470178,3.0000569 3.8622131,4.114379 4.176758,4.6591875 4.798073,5.7353425 5.923845,5.6711275 7,5.0498125 8.07606,4.4284925 8.89432,3.43553 8.273,2.359375 8.2101515,2.250518 8.1185965,2.1259468 8.023,2 Z"/>
 <path style="opacity:0.2" d="m 11.161133,2.5 -4.8232425,18 0.1621095,0 0.4785155,0 0.3945315,0 4.823242,-18 L 12,2.5 l -0.838867,0 z"/>
 <path style="opacity:0.2" d="M 9.5,10.5 9.241211,11.465821 21,14.616211 21,14.5 21,13.581055 9.5,10.5 Z"/>
 <path style="fill:#ffffff" d="M 11.161133,2 6.3378905,20 6.5,20 6.9785155,20 7.373047,20 12.196289,2 12,2 11.161133,2 Z"/>
 <path style="fill:#ffffff" d="M 9.5,10 9.241211,10.965821 21,14.116211 21,14 21,13.081055 9.5,10 Z"/>
 <path style="opacity:0.2;fill:#ffffff" d="M 2,2 C 1.446,2 1,2.446 1,3 l 0,0.5 c 0,-0.554 0.446,-1 1,-1 l 18,0 c 0.554,0 1,0.446 1,1 L 21,3 C 21,2.446 20.554,2 20,2 Z"/>
</svg>
